X: 36160
T: Scotland Is My Ain Hame
R: polka
M: 2/4
K: Gmajor
|:B/A/|G>B dG|ce g>e|dB BA/G/|Bd/B/ AB/A/|
G>B dG|ce g>e|dg/d/ Bd/B/|AG G:|
f|g2 g>d|ec g>e|dB BA/G/|Bd/B/ Af|
g2 g>d|ec g>e|dg/d/ Bd/B/|AG Gf|
g2 g>d|ec g>e|dB BA/G/|Bd/B/ AB/A/|
G>B dG|ce g>e|dg/d/ Bd/B/|AG G||

